X:4109
T:The Blackwater Reel
P:Miss Alison O'Connor
C:David R. Cunningham
R:Reel (8x32)
B:RSCDS 41-9
Z:Anselm Lingnau <anselm@strathspey.org>
M:4/4
L:1/8
K:A
|:AB|"A"cA,CE "A/C#"Acea|"D"fedf "A/C#"e2dc|\
     "D"dafd "A/C#"caec|"Bm"dBcA "E7"B2 AB|
     "A"cA,CE "A/C#"Acea|"D"fedf "A/C#"e2dc|\
     "D"dafd "A/C#"caec|"E7"dBGB "A"A2:|
|:ag|"D"fAdf "D#o"bagf|"A/E"eAcf "A/C#"e2dc|\
     "E"BEGB "E7/G#"edcB|"A"ce"B"^df "A/C#"e2 ag|
     "D"fAdf "D#o"bagf|"A/E"ecAF "A/C#"E2 ^DE|\
     "Bm"FAGF "E7"GedB|"A"c2 "D"A2 "A"A2:|
